X: 17
T:Saint Anne's Reel
M:4/4
L:1/8
C:
S:AABB form
R:Key of D
K:D
Ad|:f2fgfedB|A2F2F2A2|B2G2G2B2|A2F2F2Ad|!
|f2fgfedB|A2F2F2A2|B2B2c2c2|1d2d2
d2Ad:|2d4d2ag|
|:f2ffffff|a2g2g2gf|e2eef2g2|b2a2a2ag|!
|f2ffffff|a2g2g2gf|e2c2A2e2|d4:|
